X:330
T:Honorable Mrs. Graham of Balgowan, The
R:Reel
B:The Athole Collection
M:C|
L:1/8
K:D
d|ADFD FAAd|GBFA =cEEd|ADFD FAGB|Agfe dDD:|
g|fdad fada|g=cec egcg|fdad ^ceA=c|BGE^c dDDg|fdad fada|
g=cec efga|fd^ce dDAF|Egfe dDD||
|:d|AdFd DdAd|BdFA =cEEd|AdFd DdAd|GBA^c dDD:|
d|Adfd gefd|edfd eg=ce|dAfd eAag|fde^c dDDe|Adfd edfd|
gefd cdeg|fdBd AdGd|FdEe fdd||

